X:144
T:High Road to Linton
Z: id:dc-reel-132
M:C
L:1/8
K:A Mixolydian
cefe a3e|fece faae|cefe a3e|faec B2A2:|!
ceeg fddf|ecce fBB2|ceeg fddf|ecac B2A2:|!
a2a2 efae|faef aefe|a2a2 efae|faec B2A2:|!
cdec defd|cdec BcdB|cdec defd|eaec B2A2:|!

